X:19
T: ICH WUSST EINMAL NICHTS ANZUFANGEN
N: F0065
O: Europa, Mitteleuropa, Deutschland
R: Liebe, Schaefer - Lied
M: 2/4
L: 1/16
K: A
E2 | A3Bc2d2 | e2e2d2d2
c4B2B2 | c2c2d2d2 | c4z2
E2 | A3Bc2d2 | e2e2d2d2
c4B2B2 | c2c2d2d2 | c4z4
B4B2B2 | B2B2B2z2
c4c2c2 | c2c2c2z2
e4c2e2 | d2E2E2
EF | G2GFE2EG | B2BGE2z2
c4c2c2 | c2c2c2A2 | B4z2
E2 | e3ee2d2 | c2c2B2B2 | c4z2

